;FLAVOR:Marlin
;TIME:57956
;Filament used: 45.6631m
;Layer height: 0.2
;MINX:28.961
;MINY:28.96
;MINZ:0.2
;MAXX:271.04
;MAXY:271
;MAXZ:40
;TARGET_MACHINE.NAME:Creality CR-10S
;Generated with Cura_SteamEngine 5.10.1
M140 S50
M105
M190 S50
M104 S200
M105
M109 S200
M201 X500.00 Y500.00 Z100.00 E5000.00 ;Setup machine max acceleration
M203 X500.00 Y500.00 Z10.00 E50.00 ;Setup machine max feedrate
M204 P500.00 R1000.00 T500.00 ;Setup Print/Retract/Travel acceleration
M205 X8.00 Y8.00 Z0.40 E5.00 ;Setup Jerk
M220 S100 ;Reset Feedrate
M221 S100 ;Reset Flowrate

G28 ;Home

G92 E0 ;Reset Extruder
G1 Z2.0 F3000 ;Move Z Axis up
G1 X10.1 Y20 Z0.28 F5000.0 ;Move to start position
G1 X10.1 Y200.0 Z0.28 F1500.0 E15 ;Draw the first line
G1 X10.4 Y200.0 Z0.28 F5000.0 ;Move to side a little
G1 X10.4 Y20 Z0.28 F1500.0 E30 ;Draw the second line
G92 E0 ;Reset Extruder
G1 Z2.0 F3000 ;Move Z Axis up

M82 ;absolute extrusion mode
G92 E0
G92 E0
G1 F2700 E-5
;LAYER_COUNT:200
;LAYER:0
M107
G0 F6000 X32.429 Y31.961 Z0.2
;TYPE:SKIRT
G1 F2700 E0
G1 F1200 X33.139 Y31.347 E0.03122
G1 X33.958 Y30.757 E0.06479
G1 X34.797 Y30.261 E0.09721
G1 X35.611 Y29.87 E0.12724
G1 X36.588 Y29.502 E0.16197
G1 X37.492 Y29.252 E0.19316
G1 X38.494 Y29.069 E0.22704
G1 X39.665 Y28.973 E0.26612
G1 X40.272 Y28.96 E0.28631
G1 X259.344 Y28.96 E7.57268
G1 X260.224 Y28.973 E7.60195
G1 X261.196 Y29.032 E7.63434
G1 X262.159 Y29.178 E7.66673
G1 X263.106 Y29.409 E7.69916
G1 X263.994 Y29.709 E7.73033
G1 X264.886 Y30.099 E7.76271
G1 X265.769 Y30.586 E7.79625
G1 X266.52 Y31.088 E7.82629
G1 X267.335 Y31.746 E7.86113
G1 X268.033 Y32.424 E7.8935
G1 X268.669 Y33.161 E7.92588
G1 X269.239 Y33.951 E7.95828
G1 X269.701 Y34.727 E7.98831
G1 X270.155 Y35.669 E8.02309
G1 X270.484 Y36.547 E8.05428
G1 X270.753 Y37.519 E8.08782
G1 X270.93 Y38.485 E8.12049
G1 X271.025 Y39.615 E8.1582
G1 X271.04 Y40.29 E8.18066
G1 X271.039 Y42.504 E8.2543
G1 X271 Y45.981 E8.36995
G1 X270.999 Y259.416 E15.46883
G1 X270.987 Y260.177 E15.49414
G1 X270.929 Y261.15 E15.52656
G1 X270.783 Y262.113 E15.55896
G1 X270.552 Y263.06 E15.59138
G1 X270.239 Y263.982 E15.62376
G1 X269.847 Y264.873 E15.65614
G1 X269.395 Y265.695 E15.68734
G1 X268.833 Y266.533 E15.7209
G1 X268.243 Y267.263 E15.75212
G1 X267.54 Y267.989 E15.78573
G1 X266.804 Y268.625 E15.81808
G1 X266.014 Y269.195 E15.85048
G1 X265.238 Y269.658 E15.88054
G1 X264.298 Y270.111 E15.91524
G1 X263.385 Y270.453 E15.94767
G1 X262.447 Y270.712 E15.98004
G1 X261.481 Y270.889 E16.0127
G1 X260.345 Y270.985 E16.05062
G1 X259.67 Y271 E16.07308
G1 X40.549 Y270.999 E23.36107
G1 X39.816 Y270.987 E23.38545
G1 X38.844 Y270.928 E23.41784
G1 X37.881 Y270.782 E23.45024
G1 X36.934 Y270.551 E23.48266
G1 X36.046 Y270.251 E23.51383
G1 X35.154 Y269.861 E23.54621
G1 X34.271 Y269.374 E23.57975
G1 X33.52 Y268.872 E23.6098
G1 X32.705 Y268.214 E23.64463
G1 X32.007 Y267.536 E23.677
G1 X31.371 Y266.799 E23.70938
G1 X30.801 Y266.009 E23.74178
G1 X30.339 Y265.233 E23.77182
G1 X29.885 Y264.291 E23.8066
G1 X29.556 Y263.413 E23.83778
G1 X29.287 Y262.44 E23.87136
G1 X29.11 Y261.473 E23.90405
G1 X29.013 Y260.284 E23.94373
G1 X29 Y259.676 E23.96396
G1 X29 Y45.66 E31.08216
G1 X28.961 Y43.005 E31.17048
G1 X28.961 Y40.469 E31.25482
G1 X28.973 Y39.768 E31.27814
G1 X29.033 Y38.795 E31.31057
G1 X29.18 Y37.834 E31.3429
G1 X29.411 Y36.886 E31.37535
G1 X29.713 Y35.997 E31.40658
G1 X30.12 Y35.075 E31.4401
G1 X30.591 Y34.223 E31.47248
G1 X31.136 Y33.414 E31.50493
G1 X31.727 Y32.686 E31.53611
G1 X32.429 Y31.961 E31.56968
G0 F6000 X32.691 Y32.264
G1 F1200 X33.401 Y31.65 E31.6009
G1 X34.162 Y31.101 E31.63211
G1 X34.97 Y30.622 E31.66335
G1 X35.784 Y30.231 E31.69339
G1 X36.695 Y29.888 E31.72576
G1 X37.599 Y29.638 E31.75696
G1 X38.527 Y29.468 E31.78834
G1 X39.674 Y29.373 E31.82662
G1 X40.281 Y29.36 E31.84681
G1 X259.338 Y29.36 E39.13268
G1 X260.2 Y29.372 E39.16135
G1 X261.137 Y29.428 E39.19257
G1 X262.065 Y29.567 E39.22378
G1 X262.978 Y29.788 E39.25502
G1 X263.834 Y30.076 E39.28506
G1 X264.726 Y30.466 E39.31744
G1 X265.547 Y30.919 E39.34863
G1 X266.298 Y31.421 E39.37867
G1 X267.057 Y32.033 E39.4111
G1 X267.731 Y32.686 E39.44231
G1 X268.345 Y33.395 E39.47351
G1 X268.895 Y34.156 E39.50474
G1 X269.357 Y34.932 E39.53478
G1 X269.78 Y35.809 E39.56716
G1 X270.109 Y36.687 E39.59835
G1 X270.36 Y37.592 E39.62958
G1 X270.531 Y38.519 E39.66094
G1 X270.626 Y39.649 E39.69865
G1 X270.64 Y40.29 E39.71998
G1 X270.639 Y42.498 E39.79342
G1 X270.609 Y44.638 E39.8646
G1 X270.6 Y45.978 E39.90917
G1 X270.599 Y259.41 E47.00795
G1 X270.588 Y260.154 E47.03269
G1 X270.533 Y261.091 E47.06391
G1 X270.394 Y262.019 E47.09512
G1 X270.173 Y262.932 E47.12637
G1 X269.873 Y263.821 E47.15757
G1 X269.496 Y264.68 E47.18877
G1 X269.044 Y265.502 E47.21997
G1 X268.521 Y266.282 E47.25121
G1 X267.955 Y266.985 E47.28123
G1 X267.278 Y267.687 E47.31366
G1 X266.57 Y268.301 E47.34483
G1 X265.809 Y268.851 E47.37606
G1 X265.033 Y269.314 E47.40612
G1 X264.157 Y269.737 E47.43847
G1 X263.278 Y270.068 E47.46971
G1 X262.374 Y270.319 E47.50092
G1 X261.447 Y270.49 E47.53227
G1 X260.311 Y270.586 E47.57019
G1 X259.67 Y270.6 E47.59151
G1 X40.555 Y270.599 E54.87931
G1 X39.84 Y270.588 E54.90309
G1 X38.903 Y270.532 E54.93431
G1 X37.975 Y270.393 E54.96552
G1 X37.062 Y270.172 E54.99677
G1 X36.206 Y269.884 E55.0268
G1 X35.314 Y269.494 E55.05918
G1 X34.493 Y269.041 E55.09037
G1 X33.742 Y268.539 E55.12042
G1 X32.983 Y267.927 E55.15284
G1 X32.309 Y267.274 E55.18406
G1 X31.695 Y266.565 E55.21525
G1 X31.145 Y265.804 E55.24648
G1 X30.683 Y265.028 E55.27652
G1 X30.26 Y264.151 E55.3089
G1 X29.931 Y263.273 E55.34009
G1 X29.68 Y262.368 E55.37133
G1 X29.509 Y261.44 E55.40271
G1 X29.413 Y260.275 E55.44159
G1 X29.4 Y259.667 E55.46182
G1 X29.4 Y45.66 E62.57972
G1 X29.361 Y42.999 E62.66823
G1 X29.361 Y40.475 E62.75218
G1 X29.372 Y39.792 E62.7749
G1 X29.429 Y38.855 E62.80613
G1 X29.569 Y37.928 E62.83731
G1 X29.79 Y37.015 E62.86855
G1 X30.092 Y36.126 E62.89978
G1 X30.47 Y35.268 E62.93096
G1 X30.923 Y34.446 E62.96218
G1 X31.447 Y33.666 E62.99343
G1 X32.038 Y32.938 E63.02462
G1 X32.691 Y32.264 E63.05583
G0 F6000 X32.953 Y32.566
G1 F1200 X33.635 Y31.974 E63.08587
G1 X34.367 Y31.445 E63.11591
G1 X35.143 Y30.983 E63.14595
G1 X35.957 Y30.592 E63.17598
G1 X36.802 Y30.273 E63.20602
G1 X37.672 Y30.031 E63.23606
G1 X38.56 Y29.867 E63.26609
G1 X39.683 Y29.773 E63.30357
G1 X40.29 Y29.76 E63.32377
G1 X259.333 Y29.76 E70.60917
G1 X260.177 Y29.771 E70.63724
G1 X261.079 Y29.824 E70.66729
G1 X261.972 Y29.956 E70.69732
G1 X262.85 Y30.167 E70.72735
G1 X263.706 Y30.455 E70.75739
G1 X264.533 Y30.817 E70.78742
G1 X265.325 Y31.252 E70.81747
G1 X266.076 Y31.754 E70.84751
G1 X266.779 Y32.321 E70.87755
G1 X267.429 Y32.948 E70.90759
G1 X268.021 Y33.63 E70.93763
G1 X268.551 Y34.361 E70.96766
G1 X269.013 Y35.137 E70.9977
G1 X269.406 Y35.95 E71.02773
G1 X269.724 Y36.795 E71.05776
G1 X269.967 Y37.665 E71.0878
G1 X270.132 Y38.553 E71.11785
G1 X270.227 Y39.683 E71.15556
G1 X270.24 Y40.29 E71.17576
G1 X270.239 Y42.492 E71.24899
G1 X270.209 Y44.632 E71.32018
G1 X270.2 Y45.975 E71.36485
G1 X270.199 Y259.404 E78.46352
G1 X270.189 Y260.131 E78.48771
G1 X270.137 Y261.033 E78.51776
G1 X270.005 Y261.926 E78.54778
G1 X269.794 Y262.805 E78.57785
G1 X269.507 Y263.661 E78.60788
G1 X269.145 Y264.488 E78.6379
G1 X268.711 Y265.28 E78.66794
G1 X268.209 Y266.031 E78.69798
G1 X267.643 Y266.734 E78.728
G1 X267.016 Y267.385 E78.75806
G1 X266.335 Y267.977 E78.78808
G1 X265.604 Y268.507 E78.81811
G1 X264.828 Y268.97 E78.84816
G1 X264.015 Y269.363 E78.8782
G1 X263.17 Y269.683 E78.90825
G1 X262.301 Y269.926 E78.93826
G1 X261.413 Y270.091 E78.9683
G1 X260.277 Y270.187 E79.00622
G1 X259.67 Y270.2 E79.02641
G1 X40.561 Y270.199 E86.31401
G1 X39.863 Y270.189 E86.33723
G1 X38.961 Y270.136 E86.36728
G1 X38.068 Y270.004 E86.3973
G1 X37.19 Y269.793 E86.42734
G1 X36.334 Y269.505 E86.45738
G1 X35.507 Y269.143 E86.4874
G1 X34.715 Y268.708 E86.51746
G1 X33.964 Y268.206 E86.5475
G1 X33.261 Y267.639 E86.57754
G1 X32.611 Y267.012 E86.60758
G1 X32.019 Y266.33 E86.63761
G1 X31.489 Y265.599 E86.66765
G1 X31.027 Y264.823 E86.69768
G1 X30.634 Y264.01 E86.72772
G1 X30.316 Y263.165 E86.75775
G1 X30.073 Y262.295 E86.78779
G1 X29.908 Y261.407 E86.81783
G1 X29.813 Y260.266 E86.85591
G1 X29.8 Y259.658 E86.87614
G1 X29.8 Y45.66 E93.99374
G1 X29.761 Y42.993 E94.08246
G1 X29.761 Y40.481 E94.166
G1 X29.771 Y39.816 E94.18813
G1 X29.825 Y38.914 E94.21818
G1 X29.958 Y38.021 E94.24821
G1 X30.169 Y37.143 E94.27824
G1 X30.458 Y36.287 E94.30829
G1 X30.821 Y35.46 E94.33833
G1 X31.255 Y34.669 E94.36834
G1 X31.758 Y33.918 E94.3984
G1 X32.326 Y33.216 E94.42844
G1 X32.953 Y32.566 E94.45848
G1 F2700 E89.45848
;MESH:cube.obj(1)
G0 F6000 X39.295 Y42.292
G0 X150 Y42.472
;TYPE:WALL-INNER
G1 F2700 E94.45848
G1 F1200 X259.44 Y42.472 E98.09846
G1 X259.44 Y40.56 E98.16206
G1 X40.56 Y40.56 E105.44204
G1 X40.56 Y42.472 E105.50563
G1 X150 Y42.472 E109.14562
G0 F6000 X150 Y42.872
;TYPE:WALL-OUTER
G1 F1200 X259.84 Y42.872 E112.79891
G1 X259.84 Y40.16 E112.88911
G1 X40.16 Y40.16 E120.1957
G1 X40.16 Y42.872 E120.2859
G1 X150 Y42.872 E123.93919
G0 F6000 X150 Y42.112
;TYPE:SKIN
G1 F1200 X40.92 Y42.112 E127.56721
G1 X40.92 Y40.92 E127.60686
G1 X259.08 Y40.92 E134.86289
G1 X259.08 Y42.112 E134.90253
G1 X150 Y42.112 E138.53055
G1 F2700 E133.53055
G0 F6000 X150 Y42.372
G0 X41.346 Y42.372
G0 X41.346 Y41.912
G1 F2700 E138.53055
G1 F1200 X41.12 Y41.685 E138.5412
G0 F6000 X41.12 Y41.12
G1 F1200 X41.912 Y41.912 E138.57846
G0 F6000 X42.477 Y41.912
G1 F1200 X41.685 Y41.12 E138.61571
G0 F6000 X42.251 Y41.12
G1 F1200 X43.043 Y41.912 E138.65296
G0 F6000 X43.609 Y41.912
G1 F1200 X42.817 Y41.12 E138.69022
G0 F6000 X43.382 Y41.12
G1 F1200 X44.174 Y41.912 E138.72747
G0 F6000 X44.74 Y41.912
G1 F1200 X43.948 Y41.12 E138.76472
G0 F6000 X44.514 Y41.12
G1 F1200 X45.306 Y41.912 E138.80198
G0 F6000 X45.871 Y41.912
G1 F1200 X45.079 Y41.12 E138.83923
G0 F6000 X45.645 Y41.12
G1 F1200 X46.437 Y41.912 E138.87648
G0 F6000 X47.003 Y41.912
G1 F1200 X46.211 Y41.12 E138.91374
G0 F6000 X46.777 Y41.12
G1 F1200 X47.568 Y41.912 E138.95097
G0 F6000 X48.134 Y41.912
G1 F1200 X47.342 Y41.12 E138.98822
G0 F6000 X47.908 Y41.12
G1 F1200 X48.7 Y41.912 E139.02547
G0 F6000 X49.266 Y41.912
G1 F1200 X48.474 Y41.12 E139.06273
G0 F6000 X49.039 Y41.12
G1 F1200 X49.831 Y41.912 E139.09998
G0 F6000 X50.397 Y41.912
G1 F1200 X49.605 Y41.12 E139.13723
G0 F6000 X50.171 Y41.12
G1 F1200 X50.963 Y41.912 E139.17448
G0 F6000 X51.528 Y41.912
G1 F1200 X50.736 Y41.12 E139.21174
G0 F6000 X51.302 Y41.12
G1 F1200 X52.094 Y41.912 E139.24899
G0 F6000 X52.66 Y41.912
G1 F1200 X51.868 Y41.12 E139.28624
G0 F6000 X52.433 Y41.12
G1 F1200 X53.225 Y41.912 E139.3235
G0 F6000 X53.791 Y41.912
G1 F1200 X52.999 Y41.12 E139.36075
G0 F6000 X53.565 Y41.12
G1 F1200 X54.357 Y41.912 E139.398
G0 F6000 X54.922 Y41.912
G1 F1200 X54.13 Y41.12 E139.43526
G0 F6000 X54.696 Y41.12
G1 F1200 X55.488 Y41.912 E139.47251
G0 F6000 X56.054 Y41.912
G1 F1200 X55.262 Y41.12 E139.50976
G0 F6000 X55.827 Y41.12
G1 F1200 X56.619 Y41.912 E139.54702
G0 F6000 X57.185 Y41.912
G1 F1200 X56.393 Y41.12 E139.58427
G0 F6000 X56.959 Y41.12
G1 F1200 X57.751 Y41.912 E139.62152
G0 F6000 X58.317 Y41.912
G1 F1200 X57.525 Y41.12 E139.65878
G0 F6000 X58.09 Y41.12
G1 F1200 X58.882 Y41.912 E139.69603
G0 F6000 X59.448 Y41.912
G1 F1200 X58.656 Y41.12 E139.73328
G0 F6000 X59.222 Y41.12
G1 F1200 X60.014 Y41.912 E139.77054
G0 F6000 X60.579 Y41.912
G1 F1200 X59.787 Y41.12 E139.80779
G0 F6000 X60.353 Y41.12
G1 F1200 X61.145 Y41.912 E139.84504
G0 F6000 X61.711 Y41.912
G1 F1200 X60.919 Y41.12 E139.8823
G0 F6000 X61.484 Y41.12
G1 F1200 X62.276 Y41.912 E139.91955
G0 F6000 X62.842 Y41.912
G1 F1200 X62.05 Y41.12 E139.9568
G0 F6000 X62.616 Y41.12
G1 F1200 X63.408 Y41.912 E139.99406
G0 F6000 X63.973 Y41.912
G1 F1200 X63.181 Y41.12 E140.03131
G0 F6000 X63.747 Y41.12
G1 F1200 X64.539 Y41.912 E140.06856
G0 F6000 X65.105 Y41.912
G1 F1200 X64.313 Y41.12 E140.10582
G0 F6000 X64.878 Y41.12
G1 F1200 X65.67 Y41.912 E140.14307
G0 F6000 X66.236 Y41.912
G1 F1200 X65.444 Y41.12 E140.18032
G0 F6000 X66.01 Y41.12
G1 F1200 X66.802 Y41.912 E140.21758
G0 F6000 X67.367 Y41.912
G1 F1200 X66.576 Y41.12 E140.25481
G0 F6000 X67.141 Y41.12
G1 F1200 X67.933 Y41.912 E140.29206
G0 F6000 X68.499 Y41.912
G1 F1200 X67.707 Y41.12 E140.32931
G0 F6000 X68.273 Y41.12
G1 F1200 X69.065 Y41.912 E140.36657
G0 F6000 X69.63 Y41.912
G1 F1200 X68.838 Y41.12 E140.40382
G0 F6000 X69.404 Y41.12
G1 F1200 X70.196 Y41.912 E140.44107
G0 F6000 X70.762 Y41.912
G1 F1200 X69.97 Y41.12 E140.47833
G0 F6000 X70.535 Y41.12
G1 F1200 X71.327 Y41.912 E140.51558
G0 F6000 X71.893 Y41.912
G1 F1200 X71.101 Y41.12 E140.55283
G0 F6000 X71.667 Y41.12
G1 F1200 X72.459 Y41.912 E140.59008
G0 F6000 X73.024 Y41.912
G1 F1200 X72.232 Y41.12 E140.62734
G0 F6000 X72.798 Y41.12
G1 F1200 X73.59 Y41.912 E140.66459
G0 F6000 X74.156 Y41.912
G1 F1200 X73.364 Y41.12 E140.70184
G0 F6000 X73.929 Y41.12
G1 F1200 X74.721 Y41.912 E140.7391
G0 F6000 X75.287 Y41.912
G1 F1200 X74.495 Y41.12 E140.77635
G0 F6000 X75.061 Y41.12
G1 F1200 X75.853 Y41.912 E140.8136
G0 F6000 X76.418 Y41.912
G1 F1200 X75.626 Y41.12 E140.85086
G0 F6000 X76.192 Y41.12
G1 F1200 X76.984 Y41.912 E140.88811
G0 F6000 X77.55 Y41.912
G1 F1200 X76.758 Y41.12 E140.92536
G0 F6000 X77.324 Y41.12
G1 F1200 X78.116 Y41.912 E140.96262
G0 F6000 X78.681 Y41.912
G1 F1200 X77.889 Y41.12 E140.99987
G0 F6000 X78.455 Y41.12
G1 F1200 X79.247 Y41.912 E141.03712
G0 F6000 X79.813 Y41.912
G1 F1200 X79.021 Y41.12 E141.07438
G0 F6000 X79.586 Y41.12
G1 F1200 X80.378 Y41.912 E141.11163
G0 F6000 X80.944 Y41.912
G1 F1200 X80.152 Y41.12 E141.14888
G0 F6000 X80.718 Y41.12
G1 F1200 X81.51 Y41.912 E141.18614
G0 F6000 X82.075 Y41.912
G1 F1200 X81.283 Y41.12 E141.22339
G0 F6000 X81.849 Y41.12
G1 F1200 X82.641 Y41.912 E141.26064
G0 F6000 X83.207 Y41.912
G1 F1200 X82.415 Y41.12 E141.2979
G0 F6000 X82.98 Y41.12
G1 F1200 X83.772 Y41.912 E141.33515
G0 F6000 X84.338 Y41.912
G1 F1200 X83.546 Y41.12 E141.3724
G0 F6000 X84.112 Y41.12
G1 F1200 X84.904 Y41.912 E141.40966
G0 F6000 X85.469 Y41.912
G1 F1200 X84.677 Y41.12 E141.44691
G0 F6000 X85.243 Y41.12
G1 F1200 X86.035 Y41.912 E141.48416
G0 F6000 X86.601 Y41.912
G1 F1200 X85.809 Y41.12 E141.52142
G0 F6000 X86.375 Y41.12
G1 F1200 X87.166 Y41.912 E141.55865
G0 F6000 X87.732 Y41.912
G1 F1200 X86.94 Y41.12 E141.5959
G0 F6000 X87.506 Y41.12
G1 F1200 X88.298 Y41.912 E141.63315
G0 F6000 X88.864 Y41.912
G1 F1200 X88.072 Y41.12 E141.67041
G0 F6000 X88.637 Y41.12
G1 F1200 X89.429 Y41.912 E141.70766
G0 F6000 X89.995 Y41.912
G1 F1200 X89.203 Y41.12 E141.74491
G0 F6000 X89.769 Y41.12
G1 F1200 X90.561 Y41.912 E141.78217
G0 F6000 X91.126 Y41.912
G1 F1200 X90.334 Y41.12 E141.81942
G0 F6000 X90.9 Y41.12
G1 F1200 X91.692 Y41.912 E141.85667
G0 F6000 X92.258 Y41.912
G1 F1200 X91.466 Y41.12 E141.89393
G0 F6000 X92.031 Y41.12
G1 F1200 X92.823 Y41.912 E141.93118
G0 F6000 X93.389 Y41.912
G1 F1200 X92.597 Y41.12 E141.96843
G0 F6000 X93.163 Y41.12
G1 F1200 X93.955 Y41.912 E142.00568
G0 F6000 X94.52 Y41.912
G1 F1200 X93.728 Y41.12 E142.04294
G0 F6000 X94.294 Y41.12
G1 F1200 X95.086 Y41.912 E142.08019
G0 F6000 X95.652 Y41.912
G1 F1200 X94.86 Y41.12 E142.11744
G0 F6000 X95.425 Y41.12
G1 F1200 X96.217 Y41.912 E142.1547
G0 F6000 X96.783 Y41.912
G1 F1200 X95.991 Y41.12 E142.19195
G0 F6000 X96.557 Y41.12
G1 F1200 X97.349 Y41.912 E142.2292
G0 F6000 X97.914 Y41.912
G1 F1200 X97.123 Y41.12 E142.26643
G0 F6000 X97.688 Y41.12
G1 F1200 X98.48 Y41.912 E142.30369
G0 F6000 X99.046 Y41.912
G1 F1200 X98.254 Y41.12 E142.34094
G0 F6000 X98.82 Y41.12
G1 F1200 X99.612 Y41.912 E142.37819
G0 F6000 X100.177 Y41.912
G1 F1200 X99.385 Y41.12 E142.41545
G0 F6000 X99.951 Y41.12
G1 F1200 X100.743 Y41.912 E142.4527
G0 F6000 X101.309 Y41.912
G1 F1200 X100.517 Y41.12 E142.48995
G0 F6000 X101.082 Y41.12
G1 F1200 X101.874 Y41.912 E142.52721
G0 F6000 X102.44 Y41.912
G1 F1200 X101.648 Y41.12 E142.56446
G0 F6000 X102.214 Y41.12
G1 F1200 X103.006 Y41.912 E142.60171
G0 F6000 X103.571 Y41.912
G1 F1200 X102.779 Y41.12 E142.63897
G0 F6000 X103.345 Y41.12
G1 F1200 X104.137 Y41.912 E142.67622
G0 F6000 X104.703 Y41.912
